X:68
T: REGE REGE SCHURE
N: K1026
O: Europa, Mitteleuropa, Deutschland, Moers
R: Kinder -, Natur -, Regen - Lied
M: 2/4
L: 1/16
K: G
 | G2G2A2A2 | B2G2z2
D2 | G2G2A2A2 | B2G2z2
D2 | B2B2AAA2 | B2B2B2
B2 | A2A2A2A2 | B4B4
A2A2A2B2 | G2G2G4

